X:1
T:SYRIA
T:SYRIA
T:Oriental Characterisic (Fox-Trot Classique) 
T:ALEXANDER MALOOF
T:Copyright 1919 by LEO FEIST, Inc.
T:Copyright 1919 by LEO FEIST, Inc.
T:Copyright 1919 by LEO FEIST, Inc.
T:Copyright 1919 by LEO FEIST, Inc.
T:Copyright 1919 by LEO FEIST, Inc.
C:ALEXANDER MALOOF
Z:Copyright 1919 by LEO FEIST, Inc.
%%score { ( 1 2 ) | ( 3 4 ) }
L:1/8
Q:1/4=180
M:2/2
K:C
V:1 treble nm="Piano" snm="Pno."
V:2 treble 
V:3 treble 
V:4 treble 
V:1
!mf! (a^g) (!>!a4 g2) | (=g^f) (!>!g4 f2) | (=fefe) .g2 .f2 | [^GBe]8 |!f! (A^G) (!>!A4 G2) | %5
 (G^F) (!>!G4 F2) | (FEFE) .G2 .F2 | !tenuto![G,^B,E]6 z2 || (c8- | c4 B4) | (AB A6-) | A8 | (c8- | %13
 c4 B4) | (AB A6-) | A8 | !tenuto![A,A]8 | !tenuto![B,B]4 !tenuto![A,A]4 | !tenuto![^G,^G]8- | %19
 [^G,^G]8 | !tenuto![^G,^G]8 | !tenuto![A,A]4 !tenuto![B,B]4 | c8- | [Cc]8 ||!f! ([cec']8- | %25
 [cec']4 [Bdb]4) | ([Aca][Bdb] [Aca]6- | [Aca]8) | ([cec']8- | [cec']4 [Bdb]4) | %30
 ([Aca][Bdb] [Aca]6- | [Aca]8) | !tenuto![Aa]8 | !tenuto![Bb]4 !tenuto![Aa]4 | !tenuto![^G^g]8- | %35
 [Gg]8 | !tenuto![^G^g]8 | !tenuto![Aa]4 !tenuto![Bb]4 | !tenuto![Aca]8- | [Aca]8 |: %40
!mf! !^![G,G]8 | !^![Cc]4 !^![Ee]4 | !^![Gg]6!f! [ce]2 | [ce]2 [ce]2 [ce]2 [ce]2 | %44
 (Pg2 fe) (Pf2 ed) | (Pe2 dc) (Pd2 cB) | c4 x2!mf! [c'e']2 | [c'e']2 [c'e']2 [c'e']2 [c'e']2 | %48
 !^![G,G]8 | !^![Cc]4 !^![Ee]4 |!f! !^![Aa]8- | [Aa]8 | (Pe2 dc) (Pd2 cB) | (Pc2 BA) (PB2 A^G) | %54
 A8- |!>(! A8!>)! :|!mf! A8- | A2 A>B A>GF>G | A8- | A8 | G8- | G2 G>A G>FE>F | G8- | G8 | F8- | %65
 F2 F>G F>ED>E | F8- | F>AB>c d>cB>A |!f! !^!B4 !^!B4- |!>(! B>ab>c' d'>c'b>a!>)! | %70
 !^!b4 !^![Be^gb]4 | z3/2!<(! A,<B,C/ D>E^F>^G!<)! ||!f! A8- | A2 A>B A>GF>G | A8- | A8 | G8- | %77
 G2 G>A G>FE>F | G8- | G8 | F8- | F2 F>G F>ED>E | F8- | F2 F>G F>ED>E |!f! !^!B4 (([B,E^GB]4 | %85
 E>))D!p!E>F =G>FE>D | E4 E4- | E>C!<(!D>E F>GA>B!<)! ||!f! (c8- | c4 B4) | (AB A6-) | A8 | (c8- | %93
 c4 B4) | (AB A6- | A8) | !tenuto![A,A]8 | !tenuto![B,B]4 !tenuto![A,A]4 | !tenuto![^G,^G]8- | %99
 [^G,^G]8 | !tenuto![^G,^G]8 | !tenuto![A,A]4 !tenuto![B,B]4 | c8- | [Cc]8 ||!f! ([cec']8- | %105
 [cec']4 [Bdb]4) | ([Aca][Bdb] [Aca]6- | [Aca]8) | ([cec']8- | [cec']4 [Bdb]4) | %110
 ([Aca][Bdb] [Aca]6- | [Aca]8) | !tenuto![Aa]8 | !tenuto![Bb]4 !tenuto![Aa]4 | !tenuto![^G^g]8- | %115
 [Gg]8 | !tenuto![^G^g]8 | !tenuto![Aa]4 !tenuto![Bb]4 | !tenuto![Aca]8- | [Aca]8 || %120
!mf! !^![G,G]8 | !^![Cc]4 !^![Ee]4 | !^![Gg]6!f! [ce]2 | [ce]2 [ce]2 [ce]2 [ce]2 | %124
 (Pg2 fe) (Pf2 ed) | (Pe2 dc) (Pd2 cB) | c4 x2!mf! [c'e']2 | [c'e']2 [c'e']2 [c'e']2 [c'e']2 | %128
 !^![G,G]8 | !^![Cc]4 !^![Ee]4 |!f! !^![Aa]8- | [Aa]8 | (Pe2 dc) (Pd2 cB) | (Pc2 BA) (PB2 A^G) | %134
 A8- |!>(! A8!>)! | z2 [cea]>b a>gf>g | !^![cea]4 !^![ea]4 | z2 A>B A>GF>G | !^![CEA]8- | %140
 [CEA]4 z4 | !^![Acea]2 !^![Acea]2 z4 |] %142
V:2
 [ce]2 [ce]6 | [Bd]2 [Bd]6 | [Ac]8 | x8 | [CE]2 [CE]6 | [B,D]2 !>![B,D]6 | [A,C]8 | x8 || %8
 z2 [CE]2 z2 [CE]2 | z2 [DE]2 z2 [DE]2 | z2 [CE]2 z2 [C-E-^G]2 | %11
 [CE=G]2 (([CE^F]2 [C=F]2)) .[CE]2 | z2 [CE]2 z2 [CE]2 | z2 [DE]2 z2 [DE]2 | %14
 z2 [CE]2 z2 [C-E-^G]2 | [CE=G]2!>(! (([CE^F]2 [C=F]2)) .[CE]2!>)! | z3/2 ^D<^FD/ F>DF>D | %17
 z3/2 ^D<^FD/ z3/2 D<FD/ | z3/2 =D<ED/ =F>DE>D | =F>D E<!>!F- F2 E2 | z3/2 =D<ED/ F>DE>D | %21
 z3/2 D<ED/ F>DE>D | z2 (([CE^G]2 [CE=G]2)) (([CE^F]2 | =F2)) .E2 .^D2 .E2 || x8 | x8 | x8 | x8 | %28
 x8 | x8 | x8 | x8 | z3/2 ^d<^fd/ f>df>d | z3/2 ^d<^fd/ z3/2 d<fd/ | z3/2 d<ed/ f>de>d | %35
 f>d e<!>!f- f2 e2 | z3/2 d<ed/ f>de>d | z3/2 d<ed/ z3/2 d<ed/ | x8 | x8 |: z2 [CE]4 [CE]2 | %41
 z2 [EG]2 z2 [Gc]2 | z2 [df][ce]- [ce]2 G2 | (!>!A2 G2) (!>!A2 G2) | x8 | x8 | z2 [EG]4 g2 | %47
 (!>!a2 g2) (!>!a2 g2) | z2 [CE]4 [CE]2 | z2 [EG]2 z2 [Gc]2 | z2 [ce]4{/^d} [ce]2 | %51
 z2 [ce]4{/^d} [ce]2 | x8 | x8 | z2!<(! [CE]2 [CF]2 [CE]2!<)! | [CF]2 [CE]2 [CF]2 [CE]2 :| %56
 z2 [CE]2 z2 [CE]2- | [CE]2 x6 | z2 [A,CF]2 z2 [A,^CG]2 | z2!>(! [A,=C^F]2 z2 [A,B,=F]2!>)! | %60
 z2 !arpeggio![G,CE]2 z2 !arpeggio![G,CE]2 | [G,CE]2 x6 | %62
 z2 !arpeggio![G,CE]2 z2 !arpeggio![G,CE]2 | z2 !arpeggio![G,CE]2 z2 !arpeggio![G,CE]2 | x8 | x8 | %66
 x8 | x8 | z2 [B,E^G]2 z2 [B,EG]2 | x8 | x8 | x8 || z2 (EC) z2 (EC) | x8 | %74
 z2 ([CF]A,) z2 ([^CG]A,) | z2 ([=C^F]A,) z2 ([B,=F]A,) | z2 ([CE]G,) z2 ([CE]G,) | x8 | %78
 z2 ([CE]G,) z2 ([CE]G,) | z2 ([CE]G,) z2 ([CE]G,) | z2 ([A,D]F,) z2 ([A,D]F,) | x8 | %82
 z2 ([A,D]F,) z2 ([A,D]F,) | x8 | x8 | x8 | z2 [^G,B,]2 z2 [G,B,]2 | x8 || z2 [CE]2 z2 [CE]2 | %89
 z2 [DE]2 z2 [DE]2 | z2 [CE]2 z2 [C-E-^G]2 | [CE=G]2!>(! (([CE^F]2 [C=F]2)) .[CE]2!>)! | %92
 z2 [CE]2 z2 [CE]2 | z2 [DE]2 z2 [DE]2 | z2 [CE]2 z2 [C-E-^G]2 | [CE=G]2 (([CE^F]2 [C=F]2)) [CE]2 | %96
 z3/2 ^D<^FD/ F>DF>D | z3/2 ^D<^FD/ z3/2 D<FD/ | z3/2 =D<ED/ =F>DE>D | =F>D E<!>!F- F2 E2 | %100
 z3/2 =D<ED/ F>DE>D | z3/2 D<ED/ F>DE>D | z2 (([CE^G]2 [CE=G]2)) (([CE^F]2 | %103
 =F2))!>(! .E2 .^D2 .E2!>)! || x8 | x8 | x8 | x8 | x8 | x8 | x8 | x8 | z3/2 ^d<^fd/ f>df>d | %113
 z3/2 ^d<^fd/ z3/2 d<fd/ | z3/2 d<ed/ f>de>d | f>d e<!>!f- f2 e2 | z3/2 d<ed/ f>de>d | %117
 z3/2 d<ed/ z3/2 d<ed/ | x8 | x8 || z2 [CE]4 [CE]2 | z2 [EG]2 z2 [Gc]2 | z2 [df][ce]- [ce]2 G2 | %123
 (!>!A2 G2) (!>!A2 G2) | x8 | x8 | z2 [EG]4 g2 | (!>!a2 g2) (!>!a2 g2) | z2 [CE]4 [CE]2 | %129
 z2 [EG]2 z2 [Gc]2 | z2 [ce]4{/^d} [ce]2 | z2 [ce]4{/^d} [ce]2 | x8 | x8 | %134
 z2!<(! [CE]2 [CF]2 [CE]2!<)! | [CF]2 [CE]2 [CF]2 [CE]2 | x2 A>B A>GF>G | !>!A2 !>!E2 [Ac]4 | %138
 x2 [CE]2- [CE]2 z2 | x8 | x8 | x8 |] %142
V:3
 (A^G) (!>!A4 G2) | (=G^F) (!>!G4 F2) | (=FEFE) .G2 .F2 |[K:bass] E8 | (A,^G,) (!>!A,4 G,2) | %5
 (G,^F,) (!>!G,4 F,2) | (F,E,F,E,) .G,2 .F,2 | !>!E,2 !>!D,2 !>!C,2 (!>!B,,2 || %8
 A,,2){/^D,} E,2 E,,2 E,2 | ^G,,2{/^D,} E,2 E,,2 E,2 | A,,2{/^D,} E,2 E,,2 E,2 | %11
 A,,2{/^D,} E,2 E,,2 E,2 | A,,2{/^D,} E,2 E,,2 E,2 | ^G,,2{/^D,} E,2 E,,2 E,2 | %14
 A,,2{/^D,} E,2 E,,2 E,2 | A,,2{/^D,} E,2 E,,2 E,2 |"^cresc." z2 ^F,4 F,2 | [^F,,^F,]4 [B,,,B,,]4 | %18
 !>![E,,E,]2 B,,2"^dim." !>![E,,E,]2 B,,2 | [E,,E,]2 B,,2 [E,,E,]2 B,,2 | [E,,E,]4"^cresc." B,,4 | %21
 [E,,E,]2 (B,,2 ^G,2) [E,,E,]2 | z2 (^G,2 =G,2) (^F,2 | =F,2) .E,2 .^D,2 .E,2 || %24
 A,,2{/^D,} E,2 E,,2 E,2 | ^G,,2{/^D,} E,2 E,,2 E,2 | A,,2{/^D,} E,2 [E,,E,]2 (([^G,^G]2 | %27
 [=G,=G]2)) (([^F,^F]2 [=F,=F]2)) .[E,E]2 | A,,2{/^D,} E,2 E,,2 E,2 | ^G,,2{/^D,} E,2 E,,2 E,2 | %30
 A,,2{/^D,} E,2 [E,,E,]2 (([^G,^G]2 | [=G,=G]2)) (([^F,^F]2 [=F,=F]2)) .[E,E]2 | %32
"^cresc." z2 [^F,B,^D]4 [F,B,D]2 | z2 [A,B,^D]2 z2 [A,B,D]2 | %34
 !>![E,,E,]2 B,,2"^dim." !>![E,,E,]2 B,,2 | [E,,E,]2 B,,2 [E,,E,]2 B,,2 | %36
"^cresc." z2 [E,^G,D]2 z2 [E,G,D]2 | [E,,E,]2 (B,,2 ^G,2) [E,,E,]2 | %38
 z2 (([^G,^G]2 [=G,=G]2)) (([^F,^F]2 | [=F,=F]2)) .[E,E]2 .[^D,^D]2 .[E,E]2 |: %40
 [C,,C,]2 G,,2 [C,,C,]2 G,,2 |"^cresc." [C,,C,]2 G,,2 [C,,C,]2 G,,2 | [C,,C,]2 G,,2 C,2 G,2 | %43
 ((!>![C,C]2 G,2)) ((!>![C,C]2 G,2)) | z2 [^CG]2 z2 [DF]2 | z2 [CE]2 z2 [_A,D]2 | %46
 C,2 [G,C]2 G,,2 [G,CE]2 | ((!>![C,C]2 G,2)) ((!>![C,C]2 G,2)) | [C,,C,]2 G,,2 [C,,C,]2 G,,2 | %49
"^cresc." [C,,C,]2 G,,2 [C,,C,]2 G,,2 | A,,2{/^D,} E,2 E,,2 E,2 | A,,2{/^D,} E,2 E,,2 E,2 | %52
 ^G,,2 E,2 E,,2 E,2 | ^G,,2 E,2 E,,2 E,2 | z2 E,2 F,2 E,2 | F,2 E,2 F,2 E,2 :| %56
 (A,,2 A,2) (G,,2 G,2) | (F,,2 F,2) (E,,2 E,2) | (F,,2 F,2) (E,,2 E,2) | (_E,,2 _E,2) (D,,2 D,2) | %60
 (C,,2 C,2) (B,,,2 B,,2) | (A,,,2 A,,2) (G,,,2 G,,2) | (C,,2 C,2) (B,,,2 B,,2) | %63
 (A,,,2 A,,2) (G,,,2 G,,2) | z2 !arpeggio![F,A,D]2 z2 !arpeggio![F,A,D]2- | %65
 [F,A,D]2 B,,2 (A,,,2 A,,2) | z2 !arpeggio![F,A,D]2 z2 !arpeggio![F,A,D]2- | %67
 [F,A,D]2 B,,2 (A,,,2 A,,2) | [E,,E,]2 B,,2 [E,,E,]2 B,,2 | [D,,D,]2 A,,2 [D,,D,]2 A,,2 | %70
 [E,,E,]2 B,,2 [E,,E,]2 B,,2 | !^!C,2 E,2 !^!B,,2 E,2 || (A,,2 A,2) z2 A,2 | z2 A,2 z2 A,2 | %74
 z2 F,2 z2 E,2 | z2 _E,2 z2 D,2 | (C,,2 C,2) z2 C,2 | z2 C,2 z2 C,2 | z2 C,2 z2 B,,2 | %79
 z2 A,,2 z2 G,,2 | (D,,2 D,2) z2 D,2 | z2 D,2 z2 D,2 | z2 D,2 z2 C,2 | z2 B,,2 z2 A,,2 | %84
 (E,,2 E,2) z2 E,2 | z2 E,2 z2 E,2 | (E,,2 E,2) z2 E,2 | z2 E,2 z2 E,2 || A,,2{/^D,} E,2 E,,2 E,2 | %89
 ^G,,2{/^D,} E,2 E,,2 E,2 | A,,2{/^D,} E,2 E,,2 E,2 | A,,2{/^D,} E,2 E,,2 E,2 | %92
 A,,2{/^D,} E,2 E,,2 E,2 | ^G,,2{/^D,} E,2 E,,2 E,2 | A,,2{/^D,} E,2 E,,2 E,2 | %95
 A,,2{/^D,} E,2 E,,2 E,2 |"^cresc." z2 ^F,4 F,2 | [^F,,^F,]4 [B,,,B,,]4 | %98
 !>![E,,E,]2 B,,2"^dim." !>![E,,E,]2 B,,2 | [E,,E,]2 B,,2 [E,,E,]2 B,,2 | [E,,E,]4"^cresc." B,,4 | %101
 [E,,E,]2 (B,,2 ^G,2) [E,,E,]2 | z2 (^G,2 =G,2) (^F,2 | =F,2) .E,2 .^D,2 .E,2 || %104
 A,,2{/^D,} E,2 E,,2 E,2 | ^G,,2{/^D,} E,2 E,,2 E,2 | A,,2{/^D,} E,2 [E,,E,]2!<(! (([^G,^G]2 | %107
 [=G,=G]2))!<)!!>(! (([^F,^F]2 [=F,=F]2)) .[E,E]2!>)! | A,,2{/^D,} E,2 E,,2 E,2 | %109
 ^G,,2{/^D,} E,2 E,,2 E,2 | A,,2{/^D,} E,2 [E,,E,]2!<(! (([^G,^G]2 | %111
 [=G,=G]2))!<)!!>(! (([^F,^F]2 [=F,=F]2)) .[E,E]2!>)! |"^cresc." z2 [^F,B,^D]4 [F,B,D]2 | %113
 z2 [A,B,^D]2 z2 [A,B,D]2 | !>![E,,E,]2 B,,2"^dim." !>![E,,E,]2 B,,2 | %115
 [E,,E,]2 B,,2 [E,,E,]2 B,,2 |"^cresc." z2 [E,^G,D]2 z2 [E,G,D]2 | [E,,E,]2 (B,,2 ^G,2) [E,,E,]2 | %118
 z2 (([^G,^G]2 [=G,=G]2)) (([^F,^F]2 | [=F,=F]2)) .[E,E]2 .[^D,^D]2 .[E,E]2 || %120
 [C,,C,]2 G,,2 [C,,C,]2 G,,2 |"^cresc." [C,,C,]2 G,,2 [C,,C,]2 G,,2 | [C,,C,]2 G,,2 C,2 G,2 | %123
 ((!>![C,C]2 G,2)) ((!>![C,C]2 G,2)) | z2 [^CG]2 z2 [DF]2 | z2 [CE]2 z2 [_A,D]2 | %126
 C,2 [G,C]2 G,,2 [G,CE]2 | ((!>![C,C]2 G,2)) ((!>![C,C]2 G,2)) | [C,,C,]2 G,,2 [C,,C,]2 G,,2 | %129
"^cresc." [C,,C,]2 G,,2 [C,,C,]2 G,,2 | A,,2{/^D,} E,2 E,,2 E,2 | A,,2{/^D,} E,2 E,,2 E,2 | %132
 ^G,,2 E,2 E,,2 E,2 | ^G,,2 E,2 E,,2 E,2 | z2 E,2 F,2 E,2 | F,2 E,2 F,2 E,2 | %136
"^L.H." !>![A,,E,]4- [A,,E,]2 z2 | x4 !>!A,2 !>!E,2 | z2 A,>B, A,>G,F,>G, | %139
 !>!A,2 !>!E,2 !>![A,,A,]2 !>![E,,E,]2 | [A,,,A,,]4 z4 | !^![A,,E,A,]2 !^![A,,E,A,]2 z4 |] %142
V:4
 x8 | x8 | x8 |[K:bass] z2 B,2 !>!E,4 | x8 | x8 | x8 | x8 || x8 | x8 | x8 | x8 | x8 | x8 | x8 | %15
 x8 | [B,,,B,,]8 | x8 | x8 | x8 | x8 | x2 B,,4 E,,2 | A,,8- | A,,8 || x8 | x8 | x8 | x8 | x8 | x8 | %30
 x8 | x8 | [B,,,B,,]8 | [^F,,^F,]4 [B,,,B,,]4 | x8 | x8 | [E,,E,]4 B,,4 | x2 B,,4 E,,2 | A,,8- | %39
 A,,8 |: x8 | x8 | x8 | x8 | _B,4 A,4 | G,4 F,4 | x8 | x8 | x8 | x8 | x8 | x8 | x8 | x8 | A,,8- | %55
 A,,8 :| x8 | x8 | x8 | x8 | x8 | x8 | x8 | x8 | (D,,2 D,2) (C,,2 D,2) | B,,,2 x6 | %66
 (D,,2 D,2) (C,,2 D,2) | B,,,2 x6 | x8 | x8 | x8 | x8 || x4 !>!G,4 | !>!F,4 !>!E,4 | F,,4 E,,4 | %75
 _E,,4 D,,4 | x4 !>!B,,4 | !>!A,,4 !>!G,,4 | C,,4 B,,,4 | A,,,4 G,,,4 | x4 !>!C,4 | %81
 !>!B,,4 !>!A,,4 | !>!D,,4 !>!C,,4 | !>!B,,,4 !>!A,,,4 | x4 !>!D,4 | !>!C,4 !>!B,,4 | x4 !>!D,4 | %87
 !>!C,4 !>!B,,4 || x8 | x8 | x8 | x8 | x8 | x8 | x8 | x8 | [B,,,B,,]8 | x8 | x8 | x8 | x8 | %101
 x2 B,,4 E,,2 | A,,8- | A,,8 || x8 | x8 | x8 | x8 | x8 | x8 | x8 | x8 | [B,,,B,,]8 | %113
 [^F,,^F,]4 [B,,,B,,]4 | x8 | x8 | [E,,E,]4 B,,4 | x2 B,,4 E,,2 | A,,8- | A,,8 || x8 | x8 | x8 | %123
 x8 | _B,4 A,4 | G,4 F,4 | x8 | x8 | x8 | x8 | x8 | x8 | x8 | x8 | A,,8- | A,,8 | x8 | x8 | %138
 !>![A,,E,]4- [A,,E,]2 z2 | x8 | x8 | x8 |] %142

